X:1
T:Title
%%score { ( 1 3 4 ) | 2 }
L:1/8
Q:1/4=100
M:6/8
K:F
V:1 treble nm="Grand Piano"
V:3 treble 
V:4 treble 
V:2 bass 
V:1
 AAA F2 G | A3 c3 | [Ec][Ec][Ec] [Ed]2 [Ec] | A6 | AAA F2 G | A3 c3 | ccc e2 d | [Ec]6 | .c6 | A6 | %10
w: J.~Lincoln~Hall * * * *||||||||||
 .A6 | F6 | G3 .G3 | d3 z3 | z FF z A=B | c-[Ec-][Fc-] [Gc]3 | .c6 | A6 | .A6 | F6 | G3 .G3 | %21
w: |||||||||||
 e3 z3 | .[Fc]3[K:bass][K:treble] .[Ed]3[K:bass][K:treble] | F6 |] %24
w: |||
V:2
 [F,CF][F,CF][F,CF] [F,A,C]2 [F,B,C] | [F,CF]3 [F,A,F]3 | [C,G,][C,G,][C,G,] [C,G,]2 [C,C] | %3
 [F,CF]6 | [F,CF][F,CF][F,CF] [F,A,C]2 [F,B,C] | [F,CF]3 [F,A,F]3 | %6
 [G,E][G,E][G,E] [G,=B,G]2 [G,B,F] | [C,C]6 | [F,A,F][F,A,][F,A,] [F,A,]3 | %9
 [F,CF][F,C][F,C] [F,C]3 | [A,,A,][A,,A,][A,,A,] [A,,A,] [A,,A,]2 | [D,A,D][D,A,][D,A,] [D,A,]3 | %12
 [B,,B,][B,,B,][B,,B,] [B,,B,]3 | [B,,B,][B,,B,][B,,B,] [B,,B,]3 | %14
 [G,=B,F][G,B,][K:bass][G,B,] [G,B,]3 | [C,G,][C,G,][C,A,] [C,B,]3 | [F,A,F][F,A,][F,A,] [F,A,]3 | %17
 [F,CF][F,C][F,C] [F,C]3 | [A,,A,][A,,A,][A,,A,] [A,,A,]3 | [D,A,D][D,A,][D,A,] [D,A,]3 | %20
 [B,,B,][B,,B,][B,,B,] [B,,B,]3 | [=B,,_A,][B,,A,][B,,A,] [B,,A,]3 | %22
 .[C,A,]2 [C,A,] .[C,B,]2 [C,B,] | [F,A,]2 [F,B,] [F,A,]3 |] %24
V:3
 x6 | x6 | x6 | x6 | x6 | x6 | x6 | x6 | z FF z dc | z FF F3 | ^CCC z BA | z DD D3 | %12
 DDD D-[D-^F][DG] | DDD [DG]3 | .G6 | .E3 z3 | z FF z dc | z FF F3 | ^CCC z BA | z DD D3 | %20
 DDD D-[D-^F][DG] | FFF [Fd]3 | z[K:bass] [C,A,][K:treble][Ec] z[K:bass] [C,B,][K:treble][Ec] | %23
 z2 D C3 |] %24
V:4
 x6 | x6 | x6 | x6 | x6 | x6 | x6 | x6 | z3 F3 | x6 | z3 ^C3 | x6 | x6 | x6 | z3 F3 | x6 | z3 F3 | %17
 x6 | z3 ^C3 | x6 | x6 | x6 | x[K:bass] x[K:treble] x2[K:bass] x[K:treble] x | x6 |] %24

